Yaru++/status/symbolic/screen-shared-symbolic.svg

<svg height="16" width="16" xmlns="http://www.w3.org/2000/svg"><g fill="#808080"><path d="m3.9941406 1c-1.258.015-2.1796406-.03023438-2.9316406.3847656a1.88 1.88 0 0 0 -.83789062.9980469c-.165.439-.22460938.9601875-.22460938 1.6171875v6c0 .658.05960938 1.179188.22460938 1.617188.164.439.46089062.790046.83789062.998046.752.416 1.6736406.369766 2.9316406.384766h8.0117184c1.258-.014 2.178641.030234 2.931641-.384766a1.88 1.88 0 0 0 .837891-.998046c.164-.438001.224609-.960188.224609-1.617188v-6c0-.658-.059609-1.1781875-.224609-1.6171875a1.88 1.88 0 0 0 -.837891-.9980469c-.753-.41599997-1.673641-.3697656-2.931641-.3847656h-8.0078121zm.0058594 1h8c1.259.015 2.087125.0597188 2.453125.2617188.184.1009999.289719.2136562.386719.4726562.097.26.160156.673625.160156 1.265625v6c0 .592-.063156 1.005625-.160156 1.265625-.098.26-.202719.371656-.386719.472656-.366.202-1.194125.246719-2.453125.261719h-5l.0449219-4.2675781c.0086557-.8333578.0216708-.9487871.5078125-1.2617188.4219948-.2206822 1.4765625-.25 1.4765625-.25l.3027343-.0214843.0117188 1.1328124c.5263607-.2463088 1.046197-.5075417 1.556641-.7851562.521641-.2873572 1.024906-.5815017 1.509765-.8808594-.484859-.3060257-.988124-.6019815-1.509765-.8886718-.526992-.2866904-1.0483746-.5459912-1.556641-.7773438l.0234375 1.2089844-.2714844.0136718c0 .0000001-1.3465308.0793673-2.0488281.40625-.724389.2654654-1.046875 1.0370264-1.046875 2.0371094v4.3339844h-2c-1.258-.015-2.0900781-.059719-2.4550781-.261719-.183-.1-.2867656-.212656-.3847657-.472656-.0969999-.26-.1601562-.673625-.1601562-1.265625v-6c0-.592.0631563-1.005625.1601562-1.265625.0980001-.26.2017657-.3716562.3847657-.4726562.365-.202 1.1950781-.2467188 2.4550781-.2617188z"/><path d="m6 12h4v1.5c0 1.5.5 1.5 1.5 1.5h.5v1h-8v-1h.5c1 0 1.5 0 1.5-1.5z"/></g></svg>

<?xml version="1.0" encoding="UTF-8" standalone="no"?>
<svg
   xmlns:dc="http://purl.org/dc/elements/1.1/"
   xmlns:cc="http://creativecommons.org/ns#"
   xmlns:rdf="http://www.w3.org/1999/02/22-rdf-syntax-ns#"
   xmlns:svg="http://www.w3.org/2000/svg"
   xmlns="http://www.w3.org/2000/svg"
   xmlns:sodipodi="http://sodipodi.sourceforge.net/DTD/sodipodi-0.dtd"
   xmlns:inkscape="http://www.inkscape.org/namespaces/inkscape"
   height="16"
   width="16"
   version="1.1"
   id="svg8"
   sodipodi:docname="screen-shared-symbolic.svg"
   inkscape:version="0.92.4 (5da689c313, 2019-01-14)">
  <metadata
     id="metadata14">
    <rdf:RDF>
      <cc:Work
         rdf:about="">
        <dc:format>image/svg+xml</dc:format>
        <dc:type
           rdf:resource="http://purl.org/dc/dcmitype/StillImage" />
        <dc:title></dc:title>
      </cc:Work>
    </rdf:RDF>
  </metadata>
  <defs
     id="defs12" />
  <sodipodi:namedview
     pagecolor="#ffffff"
     bordercolor="#666666"
     borderopacity="1"
     objecttolerance="10"
     gridtolerance="10"
     guidetolerance="10"
     inkscape:pageopacity="0"
     inkscape:pageshadow="2"
     inkscape:window-width="1628"
     inkscape:window-height="856"
     id="namedview10"
     showgrid="false"
     inkscape:zoom="45.266667"
     inkscape:cx="8"
     inkscape:cy="7.5"
     inkscape:window-x="0"
     inkscape:window-y="27"
     inkscape:window-maximized="0"
     inkscape:current-layer="svg8">
    <inkscape:grid
       type="xygrid"
       id="grid825" />
  </sodipodi:namedview>
  <g
     color="#000"
     fill="gray"
     id="g6">
    <path
       style="line-height:normal;font-variant-ligatures:normal;font-variant-position:normal;font-variant-caps:normal;font-variant-numeric:normal;font-variant-alternates:normal;font-feature-settings:normal;text-indent:0;text-align:start;text-decoration-line:none;text-decoration-style:solid;text-decoration-color:#000;text-transform:none;text-orientation:mixed;shape-padding:0;isolation:auto;mix-blend-mode:normal;marker:none"
       d="M 3.9941406 1 C 2.7361406 1.015 1.8145 0.96976562 1.0625 1.3847656 A 1.88 1.88 0 0 0 0.22460938 2.3828125 C 0.059609375 2.8218125 0 3.343 0 4 L 0 10 C 0 10.658 0.059609375 11.179188 0.22460938 11.617188 C 0.38860938 12.056188 0.6855 12.407234 1.0625 12.615234 C 1.8145 13.031234 2.7361406 12.985 3.9941406 13 L 12.005859 13 C 13.263859 12.986 14.1845 13.030234 14.9375 12.615234 A 1.88 1.88 0 0 0 15.775391 11.617188 C 15.939391 11.179187 16 10.657 16 10 L 16 4 C 16 3.342 15.940391 2.8218125 15.775391 2.3828125 A 1.88 1.88 0 0 0 14.9375 1.3847656 C 14.1845 0.96876563 13.263859 1.015 12.005859 1 L 3.9980469 1 L 3.9941406 1 z M 4 2 L 12 2 C 13.259 2.015 14.087125 2.0597188 14.453125 2.2617188 C 14.637125 2.3627187 14.742844 2.475375 14.839844 2.734375 C 14.936844 2.994375 15 3.408 15 4 L 15 10 C 15 10.592 14.936844 11.005625 14.839844 11.265625 C 14.741844 11.525625 14.637125 11.637281 14.453125 11.738281 C 14.087125 11.940281 13.259 11.985 12 12 L 7 12 L 7.0449219 7.7324219 C 7.0535776 6.8990641 7.0665927 6.7836348 7.5527344 6.4707031 C 7.9747292 6.2500209 9.0292969 6.2207031 9.0292969 6.2207031 L 9.3320312 6.1992188 L 9.34375 7.3320312 C 9.8701107 7.0857224 10.389947 6.8244895 10.900391 6.546875 C 11.422032 6.2595178 11.925297 5.9653733 12.410156 5.6660156 C 11.925297 5.3599899 11.422032 5.0640341 10.900391 4.7773438 C 10.373399 4.4906534 9.8520164 4.2313526 9.34375 4 L 9.3671875 5.2089844 L 9.0957031 5.2226562 C 9.0957031 5.2226563 7.7491723 5.3020235 7.046875 5.6289062 C 6.322486 5.8943716 6 6.6659326 6 7.6660156 L 6 12 L 4 12 C 2.742 11.985 1.9099219 11.940281 1.5449219 11.738281 C 1.3619219 11.638281 1.2581563 11.525625 1.1601562 11.265625 C 1.0631563 11.005625 1 10.592 1 10 L 1 4 C 1 3.408 1.0631563 2.994375 1.1601562 2.734375 C 1.2581563 2.474375 1.3619219 2.3627188 1.5449219 2.2617188 C 1.9099219 2.0597188 2.74 2.015 4 2 z "
       id="path2" />
    <path
       d="M6 12h4v1.5c0 1.5.5 1.5 1.5 1.5h.5v1H4v-1h.5c1 0 1.5 0 1.5-1.5z"
       style="marker:none"
       overflow="visible"
       id="path4" />
  </g>
</svg>
